assets/images/icons/map-icon.svg

<svg width="40" height="40" viewBox="0 0 40 40" fill="none" xmlns="http://www.w3.org/2000/svg">
<g clip-path="url(#clip0_211_3999)">
<path opacity="0.1" d="M0.278944 28.9522C-0.0736318 25.9401 -0.122607 22.9843 0.310078 20.3101C0.84212 17.0218 2.23117 13.3636 3.74867 10.092C6.71454 3.69799 12.0239 1.46106 18.489 0.452582C27.5008 -0.953153 39.9215 0.452613 40 11.3589C39.5479 15.2591 36.5646 26.1018 26.4939 26.9292C23.1642 27.2028 21.9185 30.5473 20.4515 34.3758C16.5911 44.4503 1.56969 39.9794 0.278944 28.9522Z" fill="#7FB51F"/>
<g clip-path="url(#clip1_211_3999)">
<path d="M30.0448 32.3532L19.0321 26.5222C18.7451 26.3699 18.3951 26.3909 18.1238 26.5747L9.70281 32.4057C9.38781 32.6244 9.25131 33.0217 9.36681 33.3874C9.47881 33.7497 9.81831 33.9999 10.1998 33.9999H29.6336C30.0343 33.9999 30.3861 33.7269 30.4823 33.3349C30.5803 32.9447 30.3983 32.5404 30.0448 32.3532Z" fill="#7FB51F"/>
<path d="M33.73 30.6909L31.14 19.0306C31.077 18.7454 30.8758 18.5126 30.6045 18.4059C30.3315 18.2991 30.0253 18.3359 29.7873 18.5004L21.3645 24.3314C21.1125 24.5064 20.9708 24.7986 20.99 25.1014C21.0075 25.4076 21.1843 25.6806 21.4538 25.8224L32.4648 31.6534C32.5943 31.7216 32.7343 31.7566 32.8743 31.7566C33.0615 31.7566 33.2488 31.6971 33.4045 31.5764C33.6758 31.3699 33.8035 31.0251 33.73 30.6909Z" fill="#7FB51F"/>
<path d="M27.6365 17.1142C27.521 16.7485 27.1832 16.5 26.8 16.5H18.813C17.3605 19.1302 15.2115 21.645 14.3277 22.6285C13.8307 23.1815 13.1185 23.5 12.3747 23.5C11.631 23.5 10.9187 23.1815 10.4217 22.6285C10.0805 22.2487 9.55198 21.6415 8.94648 20.889L6.82898 30.4195C6.75198 30.7713 6.89723 31.1335 7.19473 31.3348C7.34173 31.4345 7.51323 31.4835 7.68298 31.4835C7.85798 31.4835 8.03123 31.4327 8.18173 31.3277L27.297 18.0925C27.6137 17.8772 27.7485 17.48 27.6365 17.1142Z" fill="#7FB51F"/>
<path d="M12.375 6C8.9975 6 6.25 8.7475 6.25 12.125C6.25 15.268 11.164 20.8347 11.724 21.4595C11.8903 21.6432 12.1265 21.75 12.375 21.75C12.6235 21.75 12.8597 21.6432 13.026 21.4595C13.586 20.8347 18.5 15.268 18.5 12.125C18.5 8.7475 15.7525 6 12.375 6ZM12.375 14.75C10.926 14.75 9.75 13.574 9.75 12.125C9.75 10.676 10.926 9.5 12.375 9.5C13.824 9.5 15 10.676 15 12.125C15 13.574 13.824 14.75 12.375 14.75Z" fill="#7FB51F"/>
</g>
</g>
<defs>
<clipPath id="clip0_211_3999">
<rect width="40" height="40" fill="white"/>
</clipPath>
<clipPath id="clip1_211_3999">
<rect width="28" height="28" fill="white" transform="translate(6 6)"/>
</clipPath>
</defs>
</svg>

<svg xmlns="http://www.w3.org/2000/svg" width="40" height="40" fill="none"><g fill="#7FB51F" clip-path="url(#a)"><path d="M.279 28.952c-.353-3.012-.402-5.968.031-8.642.532-3.288 1.921-6.946 3.439-10.218 2.966-6.394 8.275-8.63 14.74-9.64C27.501-.952 39.922.453 40 11.36c-.452 3.9-3.435 14.743-13.506 15.57-3.33.274-4.575 3.618-6.042 7.447C16.592 44.45 1.57 39.979.279 28.952" opacity=".1"/><g clip-path="url(#b)"><path d="m30.045 32.353-11.013-5.83a.88.88 0 0 0-.908.052l-8.421 5.83A.874.874 0 0 0 10.2 34h19.434a.874.874 0 0 0 .41-1.647m3.686-1.663-2.59-11.66a.874.874 0 0 0-1.353-.53l-8.422 5.831a.87.87 0 0 0-.375.77.87.87 0 0 0 .464.721l11.01 5.831a.86.86 0 0 0 .94-.077.88.88 0 0 0 .326-.885m-6.093-13.577a.88.88 0 0 0-.837-.614h-7.987c-1.453 2.63-3.601 5.145-4.485 6.128a2.63 2.63 0 0 1-1.953.872 2.63 2.63 0 0 1-1.953-.872 43 43 0 0 1-1.476-1.739l-2.117 9.53a.878.878 0 0 0 .854 1.064c.175 0 .348-.05.499-.155l19.115-13.235a.87.87 0 0 0 .34-.979"/><path d="M12.375 6a6.13 6.13 0 0 0-6.125 6.125c0 3.143 4.914 8.71 5.474 9.334a.88.88 0 0 0 .651.291.88.88 0 0 0 .651-.29c.56-.625 5.474-6.192 5.474-9.335A6.13 6.13 0 0 0 12.375 6m0 8.75a2.626 2.626 0 0 1 0-5.25 2.626 2.626 0 0 1 0 5.25"/></g></g><defs><clipPath id="a"><path fill="#fff" d="M0 0h40v40H0z"/></clipPath><clipPath id="b"><path fill="#fff" d="M6 6h28v28H6z"/></clipPath></defs></svg>
